public/assets/standards/sci-ai/transforming-icon-5.svg

<svg width="36" height="36" viewBox="0 0 36 36" fill="none" xmlns="http://www.w3.org/2000/svg">
<path d="M28.0801 32.3101H23.7501C22.9601 32.3101 22.3101 31.6701 22.3101 30.8701C22.3101 30.0701 22.9501 29.4301 23.7501 29.4301H28.0801C29.3601 29.4301 30.5101 28.7701 31.1501 27.6501C31.7901 26.5401 31.7801 25.2101 31.1301 24.1001L28.5201 19.6301C28.1201 18.9501 28.3501 18.0701 29.0301 17.6701C29.7101 17.2701 30.5901 17.5001 30.9901 18.1801L33.6001 22.6501C34.7701 24.6601 34.7801 27.0601 33.6301 29.0801C32.4701 31.1001 30.3901 32.3001 28.0701 32.3001L28.0801 32.3101Z" fill="#A5C352"/>
<path d="M24.59 28.01L19.63 30.88L24.59 33.74V28.01Z" fill="#A5C352"/>
<path d="M8.68998 15.8C8.43998 15.8 8.17998 15.73 7.93998 15.59C7.25998 15.18 7.04998 14.29 7.45998 13.62L12.46 5.43002C13.62 3.45002 15.69 2.27002 17.99 2.27002C20.29 2.27002 22.36 3.46002 23.52 5.44002L27 11.32C27.4 12 27.18 12.88 26.5 13.29C25.82 13.69 24.94 13.47 24.53 12.79L21.04 6.91002C20.39 5.81002 19.25 5.15002 17.98 5.15002C16.71 5.15002 15.57 5.81002 14.92 6.90002C14.92 6.90002 14.92 6.92002 14.91 6.92002L9.89998 15.13C9.62998 15.57 9.15998 15.82 8.66998 15.82L8.68998 15.8Z" fill="#A5C352"/>
<path d="M22.89 12.78L27.88 15.59L27.82 9.87L22.89 12.78Z" fill="#A5C352"/>
<path d="M14.73 32.31H7.92C5.59 32.31 3.52 31.11 2.36 29.09C1.2 27.07 1.21 24.67 2.39 22.66L3.88 20.11C4.28 19.43 5.16 19.2 5.84 19.6C6.52 20 6.75 20.88 6.35 21.56L4.86 24.11C4.21 25.22 4.21 26.54 4.84 27.66C5.48 28.77 6.63 29.44 7.91 29.44H14.72C15.51 29.44 16.16 30.08 16.16 30.88C16.16 31.68 15.52 32.32 14.72 32.32L14.73 32.31Z" fill="#A5C352"/>
<path d="M7.15997 23.01L7.19997 17.29L2.21997 20.12L7.15997 23.01Z" fill="#A5C352"/>
<path d="M26.42 20C26.42 20 22.65 25.38 18 25.38C13.35 25.38 9.57996 20 9.57996 20C9.57996 20 13.35 14.62 18 14.62C22.65 14.62 26.42 20 26.42 20Z" fill="#006D68"/>
<path d="M17.9999 22.91C19.6347 22.91 20.9599 21.5848 20.9599 19.95C20.9599 18.3152 19.6347 16.99 17.9999 16.99C16.3652 16.99 15.0399 18.3152 15.0399 19.95C15.0399 21.5848 16.3652 22.91 17.9999 22.91Z" fill="#A5C352"/>
</svg>

<svg xmlns="http://www.w3.org/2000/svg" width="36" height="36" fill="none" viewBox="0 0 36 36"><path fill="#a5c352" d="M28.08 32.31h-4.33a1.44 1.44 0 0 1 0-2.88h4.33c1.28 0 2.43-.66 3.07-1.78.64-1.11.63-2.44-.02-3.55l-2.61-4.47c-.4-.68-.17-1.56.51-1.96s1.56-.17 1.96.51l2.61 4.47a6.38 6.38 0 0 1 .03 6.43 6.34 6.34 0 0 1-5.56 3.22z"/><path fill="#a5c352" d="m24.59 28.01-4.96 2.87 4.96 2.86zM8.69 15.8a1.433 1.433 0 0 1-1.23-2.18l5-8.19a6.35 6.35 0 0 1 5.53-3.16c2.3 0 4.37 1.19 5.53 3.17L27 11.32c.4.68.18 1.56-.5 1.97-.68.4-1.56.18-1.97-.5l-3.49-5.88a3.53 3.53 0 0 0-3.06-1.76c-1.27 0-2.41.66-3.06 1.75 0 0 0 .02-.01.02L9.9 15.13c-.27.44-.74.69-1.23.69z"/><path fill="#a5c352" d="m22.89 12.78 4.99 2.81-.06-5.72zm-8.16 19.53H7.92c-2.33 0-4.4-1.2-5.56-3.22a6.33 6.33 0 0 1 .03-6.43l1.49-2.55c.4-.68 1.28-.91 1.96-.51s.91 1.28.51 1.96l-1.49 2.55a3.52 3.52 0 0 0-.02 3.55 3.52 3.52 0 0 0 3.07 1.78h6.81a1.44 1.44 0 0 1 0 2.88z"/><path fill="#a5c352" d="m7.16 23.01.04-5.72-4.98 2.83z"/><path fill="#006d68" d="M26.42 20s-3.77 5.38-8.42 5.38S9.58 20 9.58 20s3.77-5.38 8.42-5.38S26.42 20 26.42 20"/><path fill="#a5c352" d="M18 22.91a2.96 2.96 0 1 0 0-5.92 2.96 2.96 0 0 0 0 5.92"/></svg>
